img/github-2.svg

<svg fill="none" height="100" viewBox="0 0 103 100" width="103" xmlns="http://www.w3.org/2000/svg" xmlns:xlink="http://www.w3.org/1999/xlink"><clipPath id="a"><path d="m0 0h102.516v100h-102.516z"/></clipPath><g clip-path="url(#a)"><path clip-rule="evenodd" d="m51.2579 0c-28.3019 0-51.2579 22.956-51.2579 51.2579 0 22.6415 14.7799 41.8239 34.9057 48.7421 2.5157.314 3.4591-1.2579 3.4591-2.5157 0-1.2579 0-4.4025 0-8.805-14.151 3.1446-17.2956-6.9183-17.2956-6.9183-2.2013-5.9748-5.6604-7.5472-5.6604-7.5472-4.717-3.1446.3145-3.1446.3145-3.1446 5.0314.3145 7.8616 5.3459 7.8616 5.3459 4.717 7.8616 11.9497 5.6604 14.7799 4.4025.3144-3.4591 1.8868-5.6604 3.1446-6.9182-11.3207-1.2579-23.2704-5.6604-23.2704-25.4717 0-5.6604 1.8868-10.0629 5.3459-13.8365-.3145-.9434-2.2013-6.2893.6289-13.2076 0 0 4.4026-1.2578 14.151 5.346 4.088-1.2579 8.4905-1.5724 12.8931-1.5724 4.4025 0 8.805.629 12.893 1.5724 9.7485-6.6038 14.151-5.346 14.151-5.346 2.8302 6.9183.9434 12.2642.6289 13.5221 3.1447 3.4591 5.3459 8.1761 5.3459 13.8364 0 19.8114-11.9497 23.8994-23.2704 25.1573 1.8868 1.5723 3.4591 4.717 3.4591 9.4339v14.151c0 1.2578.9434 2.8297 3.4591 2.5157 20.4403-6.9182 34.9055-26.1006 34.9055-48.7421-.314-28.3019-23.2702-51.2579-51.5721-51.2579z" fill="#191717" fill-rule="evenodd"/></g></svg>

<svg width="103" height="100" viewBox="0 0 103 100" fill="none" xmlns="http://www.w3.org/2000/svg">
<g clip-path="url(#clip0_3174_5630)">
<path fill-rule="evenodd" clip-rule="evenodd" d="M51.2579 0C22.956 0 0 22.956 0 51.2579C0 73.8994 14.7799 93.0818 34.9057 100C37.4214 100.314 38.3648 98.7421 38.3648 97.4843C38.3648 96.2264 38.3648 93.0818 38.3648 88.6793C24.2138 91.8239 21.0692 81.761 21.0692 81.761C18.8679 75.7862 15.4088 74.2138 15.4088 74.2138C10.6918 71.0692 15.7233 71.0692 15.7233 71.0692C20.7547 71.3837 23.5849 76.4151 23.5849 76.4151C28.3019 84.2767 35.5346 82.0755 38.3648 80.8176C38.6792 77.3585 40.2516 75.1572 41.5094 73.8994C30.1887 72.6415 18.239 68.239 18.239 48.4277C18.239 42.7673 20.1258 38.3648 23.5849 34.5912C23.2704 33.6478 21.3836 28.3019 24.2138 21.3836C24.2138 21.3836 28.6164 20.1258 38.3648 26.7296C42.4528 25.4717 46.8553 25.1572 51.2579 25.1572C55.6604 25.1572 60.0629 25.7862 64.1509 26.7296C73.8994 20.1258 78.3019 21.3836 78.3019 21.3836C81.1321 28.3019 79.2453 33.6478 78.9308 34.9057C82.0755 38.3648 84.2767 43.0818 84.2767 48.7421C84.2767 68.5535 72.327 72.6415 61.0063 73.8994C62.8931 75.4717 64.4654 78.6164 64.4654 83.3333C64.4654 90.2516 64.4654 95.5975 64.4654 97.4843C64.4654 98.7421 65.4088 100.314 67.9245 100C88.3648 93.0818 102.83 73.8994 102.83 51.2579C102.516 22.956 79.5598 0 51.2579 0Z" fill="#191717"/>
</g>
<defs>
<clipPath id="clip0_3174_5630">
<rect width="102.516" height="100" fill="white"/>
</clipPath>
</defs>
</svg>
